X: 37919
T: Southwest Bridge
R: reel
M: 4/4
K: Gminor
F|D2 GF GABc|dgfa gdBG|F2 CF A,FCF|CDFG AGFC|
D2 GF GABc|dgfa g2 ga|bagf cdfc|dfcA BG G:|
a|g2 dg Bgdg|GBdB gdBG|f2 cf Afcf|FAcf agfa|
g2 dg BgdB|GBdg bagb|agfd cdfc|dfcA BG G:|

